!!!!SEGMENT: pl-sa--363-a-viii-3_anonim--ach-ubogi-lzllobie.krn
!!!cenid: 17xx:1237
!!!COM: Anonim
!!!COM-rismID:
!!!CDT:
!!!CNT:
!!!OTL: Ach ubogi żłobie
!!!PDT:
!!!AGN: Sacred
!!!SMS-siglum: PL-SA
!!!SMS-shelfmark: 363/A VIII 3
!!!SMS-shelfwork: W
!!!SMS-variant: Canto.: PL-SA 363/A VIII 3 16:2-3
!!!SMS-altvar: Canto.: PL-SA 363/A VIII 3 16:6-7
!!!NIFC-rismSourceID: 1001038387
!!!NIFC-islandoraID:
!!!URL-pdf-islandora:
!!!URL-scan: https://bc.bdsandomierz.pl/dlibra/publication/1667/edition/1635/content @EN{Scan on Cyfrowa Biblioteka Diecezjalna w Sandomierzu} @PL{Skany w portalu Cyfrowa Biblioteka Diecezjalna w Sandomierzu}
!!!ONB-nifc:
!!!AIN: 1 organ 1 soprn 2 violn
!!!key: g
**kern	**kern	**kern	**kern	**text	**text	**text	**text	**text	**text	**text	**text	**text	**text
*	*group1	*group1	*	*	*	*	*	*	*	*	*	*	*
*part4	*part3	*part2	*part1	*part1	*part1	*part1	*part1	*part1	*part1	*part1	*part1	*part1	*part1
*staff4	*staff3	*staff2	*staff1	*staff1	*staff1	*staff1	*staff1	*staff1	*staff1	*staff1	*staff1	*staff1	*staff1
*	*	*	*	*verse1	*verse2	*verse3	*verse4	*verse5	*verse6	*verse7	*verse8	*verse9	*verse10
*I"Organo.	*I"Violino Secundo	*I"Violino Primo	*I"Canto.	*	*	*	*	*	*	*	*	*	*
*I'org	*I'vl 2	*I'vl 1	*I'S	*	*	*	*	*	*	*	*	*	*
*Iorgan	*Ivioln	*Ivioln	*Isoprn	*	*	*	*	*	*	*	*	*	*
*ICklav	*ICstr	*ICstr	*ICvox	*	*	*	*	*	*	*	*	*	*
*IGacmp	*IGacmp	*IGacmp	*IGsolo	*	*	*	*	*	*	*	*	*	*
*clefF4	*clefG2	*clefG2	*clefC1	*	*	*	*	*	*	*	*	*	*
*k[b-]	*k[b-]	*k[b-]	*k[b-]	*	*	*	*	*	*	*	*	*	*
*g:	*g:	*g:	*g:	*	*	*	*	*	*	*	*	*	*
*M3/4	*M3/4	*M3/4	*M3/4	*	*	*	*	*	*	*	*	*	*
=1	=1	=1	=1	=1	=1	=1	=1	=1	=1	=1	=1	=1	=1
!LO:TX:t=P:problem=bemol BB- scalony z kluczem	!	!	!	!	!	!	!	!	!	!	!	!	!
!LO:TX:b:i:t=Ach ubogi Złobie	!LO:TX:b:i:t=Ach ubogi Złobie	!LO:TX:b:i:t=Ach ubogi Ƶłobie	!	!	!	!	!	!	!	!	!	!	!
2GG/	8b-/L	8dd\L	8dd\	Ach	Ach	Ach	Swię-	Gdy-	A-	Po-	Jam	Bę-	Nie
.	8b-/J	8dd\J	8dd\	u-	u-	u-	-te	-by	-le	-wiedz	ci	-dziez	by-
!	!	!LO:SIC:v:s=4ee-\	!	!	!	!	!	!	!	!	!	!	!
.	4cc/	4ee\	4ee-X\	-bo-	-bo-	-bo-	Re-	nie	y	dzi-	bę-	mi	-ło
!	!	!LO:SIC:v:s=4ee-\	!	!	!	!	!	!	!	!	!	!	!
4BB-/	4cc/	4ee\	4ee-\	-gi	-gi	-gie	-ce	te	zwierz	-cie	-dę	ko-	na
=2	=2	=2	=2	=2	=2	=2	=2	=2	=2	=2	=2	=2	=2
*	*	*2\right	*2\right	*	*	*	*	*	*	*	*	*	*
2FF/	2a/	2cc\	2cc\	Zło-	Zło-	Dzie-	by-	Li-	dzi-	mo-	nu-	-cha-	Swie-
4F\	4b-/	4dd\	4dd\	-bie	-bie	-cię	-ły	-ce	-ki	-ię	-cił	-niem	-cie
=3	=3	=3	=3	=3	=3	=3	=3	=3	=3	=3	=3	=3	=3
8GG/L	8g/L	8b-/L	(8b-\L	czuz	czuz	po-	kto-	y	y	gdzie	płacz	pie-	tey
8AA/	8d/J	8g/J	8g\J)	.	.	.	.	.	.	.	.	.	.
8BB-/	(8cc/L	8ee-X\L	(8ee-X\L	ia	ia	-wiedz	-re	Sli-	by-	maz	Spie-	-scze-	U-
8AA/	8b-/	8dd\J	8dd\J)	.	.	.	.	.	.	.	.	.	.
8BB-/	8a/	8cc\L	(8cc\L	wi-	wi-	ci	cie	-czne	-dle-	Mat-	-wa-	-niem	-ro-
8C/J	8g/J)	8b-\J	8b-\J)	.	.	.	.	.	.	.	.	.	.
=4	=4	=4	=4	=4	=4	=4	=4	=4	=4	=4	=4	=4	=4
8D/L	8.d/L	4a/	4a\	-dzę	-dzę	we-	po-	Żrze-	-ce	-kę	-niem	Cho-	-dy
8DD/J	.	.	.	.	.	.	.	.	.	.	.	.	.
.	16c/Jk	.	.	.	.	.	.	.	.	.	.	.	.
2GG/	2Bn/	(8g/L	(8g\L	w_to-	w_to-	-zme	-wi-	-ni-	Ry-	two-	kru-	-wa-	Dzię-
!	!	!LO:SIC:v:s=8f#/J)	!LO:SIC:v:s=8f#/J)	!	!	!	!	!	!	!	!	!	!
!	!	!LO:N:vis=8.	!	!	!	!	!	!	!	!	!	!	!
.	.	8f/J)	8f\J)	.	.	.	.	.	.	.	.	.	.
.	.	4g/	4g\	-bie	-bie	cię	-ły	-ce	-ki	-ie	-cił	-niem	-cie
!LO:LB:g=original	!LO:LB:g=original	!LO:LB:g=original	!LO:PB:g=original	!	!	!	!	!	!	!	!	!	!
=5||	=5||	=5||	=5||	=5||	=5||	=5||	=5||	=5||	=5||	=5||	=5||	=5||	=5||
!LO:TX:t=P:problem=mixed beam	!	!	!	!	!	!	!	!	!	!	!	!	!
!LO:TX:b:i:t=Droſzą pieknosc	!LO:TX:b:i:t=Droſzą pieknosc.	!LO:TX:b:i:t=Droſzą pieknośc	!	!	!	!	!	!	!	!	!	!	!
8DD/L	8d/L	8g/L	8g\	Dro-	Dro-	Kto	Cze-	Już	Czu-	Ja	Gdy-	Nie	Mo-
8D\J	8f#X/J	8a/J	8a\	-szą	-szą	cie	-mu	bÿ	-ią	u-	-bym	za	-wcie
4G\	4g/	4b-/	4b-\	pie-	pie-	od-	w_sian-	cie	skry-	-pro-	cie	Sy-	Nie-
4F#X\	4f#X/	4a/	4a\	-kność	-kność	-biegł	-ku	był	-ty	-sze	miał	-na	-ba
=6	=6	=6	=6	=6	=6	=6	=6	=6	=6	=6	=6	=6	=6
!LO:TX:t=P:problem=mixed beam	!	!	!	!	!	!	!	!	!	!	!	!	!
8DD/L	8d/L	8g/L	8g\	ni-	ni-	w_tey	w_li-	Zwierz	O-	Ze	iuz	nie	że
8D\J	8f#X/J	8a/J	8a\	-źli	-źli	ia-	-chey	po-	-gień	cie	by	za	to
4G\	4g/	4b-/	4b-\	Nie-	Nie-	-ski-	Szo-	-chło-	wry-	w_mo-	sie	Bra-	Bog
4F#X\	4f#X/	4a/	4a\	-bo	-bo	-ni	-pie	-noł	-ty	-ie	dom	-ta	waz
=7	=7	=7	=7	=7	=7	=7	=7	=7	=7	=7	=7	=7	=7
!	!	!LO:SIC:v:s=(8ee-\L	!LO:SIC:v:s=(8ee-\L	!	!	!	!	!	!	!	!	!	!
8GG/L	8cc/L	(8ee\L	(8ee\L	w_ma-	w_ma-	kto	cie	y	do	Za-	w_nie-	a-	a
8D/J	8b-/	8dd\	8dd\)	.	.	.	.	.	.	.	.	.	.
8E-X/L	8a/	8cc\	(8cc\	-łey	-łey	od-	.	ła-	two-	-nio-	-bo	-le	nie
8D/	8g/	8b-\	8b-\)	.	.	.	.	.	.	.	.	.	.
8C/	8f#X/	8a\	(8a\	o-	o-	-biegł	Zło-	-ko-	-iey	-se	o-	w_ser-	za-
8BB-/J	8d/J	8g\J)	8g\J)	.	.	.	.	.	.	.	.	.	.
=8	=8	=8	=8	=8	=8	=8	=8	=8	=8	=8	=8	=8	=8
!LO:TX:t=P:problem=mixed beam	!LO:TX:t=P:problem=mixed beam	!	!	!	!	!	!	!	!	!	!	!	!
8AA/L	8d/L	4.f#X/	4f#X/	-ſo-	-ſo-	na	-ży-	-we	twa-	Po-	-bro-	-cu	-wie-
8F#X\J	16dd\L	.	.	.	.	.	.	.	.	.	.	.	.
.	16cc\JJ	.	.	.	.	.	.	.	.	.	.	.	.
*2\right	*	*	*	*	*	*	*	*	*	*	*	*	*
2G;\	2bn/	.	4f#/	.	.	Swie-	.	lwi-	-rzy-	-ko-	.	Pa-	-dzi-
.	.	8f#/	.	.	.	.	.	.	.	.	.	.	.
.	.	4g/	4g/	-bie	-bie	-cie	-li	-ce.	-czki	-ie	-cił	-nem	-cie
==	==	==	==	==	==	==	==	==	==	==	==	==	==
*-	*-	*-	*-	*-	*-	*-	*-	*-	*-	*-	*-	*-	*-
!!!system-decoration: <s1>[(g1)]<s4>
!!!ENC: Marcin Jachim
!!!END: 2020-11-23
!!!ENC: Andrzej Kubiczek
!!!END: 2021-12-30
